X:4
T:Mary Had a Little Lamb
M:4/4
L:1/8
K:C
%%MIDI program 10
e3/2 d/2 cd ee e2| dd d2 eg g2| e3/2 d/2 cd ee ee| dd ed c4| 
e3/2 d/2 cd ee e2| dd d2 eg g2| e3/2 d/2 cd ee ee| dd ed c4|
g2 e3/2 f/2 g a2 g| g2 e3/2 f/2 g3 g|g2 e3/2 f/2 gg ag| gg fe d2cd|
ee ed c2 A3/2 B/2| cc ca g4| c2 c3/2 d/2 eg ec| d4 c2 z2|


